symbols/iconen/glas.svg

<?xml version="1.0" encoding="UTF-8" standalone="no"?>
<svg
   xmlns:dc="http://purl.org/dc/elements/1.1/"
   xmlns:cc="http://creativecommons.org/ns#"
   xmlns:rdf="http://www.w3.org/1999/02/22-rdf-syntax-ns#"
   xmlns:svg="http://www.w3.org/2000/svg"
   xmlns="http://www.w3.org/2000/svg"
   viewBox="0 0 226.772 264.56668"
   height="264.56668"
   width="226.772"
   xml:space="preserve"
   id="svg2"
   version="1.1"><metadata
     id="metadata8"><rdf:RDF><cc:Work
         rdf:about=""><dc:format>image/svg+xml</dc:format><dc:type
           rdf:resource="http://purl.org/dc/dcmitype/StillImage" /></cc:Work></rdf:RDF></metadata><defs
     id="defs6"><clipPath
       id="clipPath18"
       clipPathUnits="userSpaceOnUse"><path
         id="path16"
         d="M 0,198.425 H 170.079 V 0 H 0 Z" /></clipPath><clipPath
       id="clipPath32"
       clipPathUnits="userSpaceOnUse"><path
         id="path30"
         d="M 0,198.425 H 170.079 V 0 H 0 Z" /></clipPath><clipPath
       id="clipPath54"
       clipPathUnits="userSpaceOnUse"><path
         id="path52"
         d="M 0,198.425 H 170.079 V 0 H 0 Z" /></clipPath></defs><g
     transform="matrix(1.3333333,0,0,-1.3333333,0,264.56667)"
     id="g10"><g
       id="g12"><g
         clip-path="url(#clipPath18)"
         id="g14"><g
           transform="translate(165.8226,198.4252)"
           id="g20"><path
             id="path22"
             style="fill:#fee702;fill-opacity:1;fill-rule:nonzero;stroke:none"
             d="m 0,0 h -161.566 c -2.351,0 -4.257,-1.905 -4.257,-4.256 v -156.151 -5.416 -26.528 c 0,-3.355 2.72,-6.074 6.074,-6.074 H -1.818 c 3.355,0 6.074,2.719 6.074,6.074 v 26.528 5.416 156.151 C 4.256,-1.905 2.351,0 0,0" /></g><path
           id="path24"
           style="fill:#ffffff;fill-opacity:1;fill-rule:nonzero;stroke:none"
           d="M 8.5,189.925 H 161.579 V 38.018 H 8.5 Z" /></g></g><g
       id="g26"><g
         clip-path="url(#clipPath32)"
         id="g28"><g
           transform="translate(61.8772,19.9604)"
           id="g34"><path
             id="path36"
             style="fill:#231f20;fill-opacity:1;fill-rule:nonzero;stroke:none"
             d="m 0,0 c 0,4.924 3.449,8.397 8.323,8.397 2.474,0 4.549,-0.799 6.024,-2.399 l -2.15,-2.05 C 11.273,4.974 9.947,5.573 8.373,5.573 5.424,5.573 3.374,3.273 3.374,0 c 0,-3.35 2,-5.674 4.874,-5.674 2.624,0 4.449,1.499 4.449,3.674 v 0.425 H 8.773 v 2.724 h 7.223 v -2.524 c 0,-4.15 -3.225,-7.073 -7.848,-7.073 C 3.374,-8.448 0,-4.949 0,0" /></g><path
           id="path38"
           style="fill:#231f20;fill-opacity:1;fill-rule:nonzero;stroke:none"
           d="m 80.752,29.932 h 3.099 v -18.12 h -3.099 z" /><g
           transform="translate(93.9007,16.4106)"
           id="g40"><path
             id="path42"
             style="fill:#231f20;fill-opacity:1;fill-rule:nonzero;stroke:none"
             d="M 0,0 V 0.7 L -2.05,0.675 c -1.624,-0.025 -2.499,-0.6 -2.499,-1.674 0,-0.95 0.75,-1.625 1.8,-1.625 C -1.125,-2.624 0,-1.55 0,0 m -7.673,-1.074 c 0,2.374 1.975,3.799 5.274,3.824 L 0,2.774 v 0.401 c 0,1.449 -0.925,2.199 -2.6,2.199 -1.099,0 -2.074,-0.425 -2.749,-1.2 l -1.875,1.825 c 1.075,1.324 2.8,2.049 4.924,2.049 3.3,0 5.4,-1.799 5.4,-4.674 v -4.899 c 0,-0.45 0.199,-0.649 0.699,-0.649 h 0.225 v -2.425 h -1.45 c -1.175,0 -1.974,0.55 -2.224,1.449 H 0.3 c -0.775,-1.123 -2.05,-1.748 -3.599,-1.748 -2.6,0 -4.374,1.549 -4.374,3.824" /></g><g
           transform="translate(102.8265,16.9857)"
           id="g44"><path
             id="path46"
             style="fill:#231f20;fill-opacity:1;fill-rule:nonzero;stroke:none"
             d="m 0,0 c -1.675,0.5 -3.3,1.4 -3.3,3.65 0,2.274 1.9,3.823 4.724,3.823 1.9,0 3.375,-0.675 4.199,-1.924 L 3.849,3.775 c -0.625,0.774 -1.475,1.199 -2.4,1.199 -1.05,0 -1.699,-0.475 -1.699,-1.225 0,-1 1.05,-1.175 2.574,-1.649 1.675,-0.5 3.299,-1.4 3.299,-3.65 0,-2.324 -1.999,-3.924 -4.948,-3.924 -1.925,0 -3.475,0.675 -4.374,1.95 l 1.774,1.774 c 0.675,-0.8 1.574,-1.225 2.574,-1.225 1.2,0 1.925,0.5 1.925,1.326 C 2.574,-0.65 1.524,-0.475 0,0" /></g></g></g><g
       id="g48"><g
         clip-path="url(#clipPath54)"
         id="g50"><g
           transform="translate(101.9764,53.8748)"
           id="g56"><path
             id="path58"
             style="fill:#231f20;fill-opacity:1;fill-rule:nonzero;stroke:none"
             d="m 0,0 h -33.874 v 21.14 h 14.903 c 3.516,0 6.377,2.86 6.377,6.377 V 57.37 c 0,3.517 -2.861,6.378 -6.377,6.378 h -14.903 v 6.154 c 0,6.566 4.094,12.553 9.956,14.559 l 2.874,0.983 v 33.563 h 8.214 V 85.444 l 2.874,-0.983 C -4.094,82.455 0,76.468 0,69.902 Z m -33.874,59.498 h 14.903 c 1.173,0 2.127,-0.955 2.127,-2.128 V 27.517 c 0,-1.173 -0.954,-2.127 -2.127,-2.127 H -33.874 Z M -4.33,91.291 v 36.226 h -8.5 v -0.01 h -8.214 v 0.015 h -8.5 V 91.291 c -7.784,-3.938 -12.83,-12.175 -12.83,-21.389 V -0.409 c 0,-4.461 3.629,-8.091 8.091,-8.091 H 0.409 c 4.462,0 8.091,3.63 8.091,8.091 v 70.311 c 0,9.214 -5.046,17.451 -12.83,21.389" /></g></g></g></g></svg>

<svg xmlns="http://www.w3.org/2000/svg" xmlns:xlink="http://www.w3.org/1999/xlink" version="1.1" width="170.079pt" height="170.079pt" viewBox="0 0 170.079 170.079">
<defs>
<clipPath id="clip_0">
<path transform="matrix(1,0,0,-1,0,170.079)" d="M0 170.079H170.079V0H0Z"/>
</clipPath>
</defs>
<g id="layer_1" data-name="Witte achtergrond">
<path transform="matrix(1,0,0,-1,0,170.079)" d="M0 0H170.078V170.078H0Z" fill="#ffffff"/>
</g>
<g id="layer_1" data-name="Icoon">
<g clip-path="url(#clip_0)">
<path transform="matrix(1,0,0,-1,101.9764,144.5506)" d="M0 0H-33.874V21.14H-18.971C-15.455 21.14-12.594 24-12.594 27.517V57.37C-12.594 60.887-15.455 63.748-18.971 63.748H-33.874V69.902C-33.874 76.468-29.78 82.455-23.918 84.461L-21.044 85.444V119.007H-12.83V85.444L-9.956 84.461C-4.094 82.455 0 76.468 0 69.902ZM-33.874 59.498H-18.971C-17.798 59.498-16.844 58.543-16.844 57.37V27.517C-16.844 26.344-17.798 25.39-18.971 25.39H-33.874ZM-4.33 91.291V127.517H-12.83V127.507H-21.044V127.522H-29.544V91.291C-37.328 87.353-42.374 79.116-42.374 69.902V-.409C-42.374-4.87-38.745-8.5-34.283-8.5H.409C4.871-8.5 8.5-4.87 8.5-.409V69.902C8.5 79.116 3.454 87.353-4.33 91.291" fill="#231f20"/>
</g>
</g>
</svg>
